X:244
T: HAT EIER VATER VIEL HAFEN GEFAENGT
N: B0730
O: Europa, Mitteleuropa, Deutschland
R: ???
M: 4/4
L: 1/8
K: C
 | G,2G,2G,2A,B, | C2G,2E,2C,2 |
C4D4 | E8 |
G,2G,2G,2A,B, | C2G,2E,2C,2 |
C4D4 | E8 |
E2E2EDCB, | A,2A,2A,4 |
D2D2DCB,A, | G,G,G,G,A,B,C2 | C2B,2C4 |
E2E2EDCB, | A,2A,2A,4 |
D2D2DCB,A, | G,G,G,G,A,B,C2 | C2B,2C4

@@@ Tune index: 2462
